src/pictures/logo-white.svg

<svg width="11" height="13" viewBox="0 0 11 13" fill="none" xmlns="http://www.w3.org/2000/svg">
<path d="M6.04776 6.06748L5.98357 6.41102C5.86883 7.03635 5.66476 7.64192 5.37762 8.20914C4.48526 9.95153 3.61054 9.66513 3.57033 9.65243C3.5454 9.63249 3.5286 9.60415 3.52307 9.57272L2.86914 6.10558C3.23384 6.09359 5.37127 6.02728 6.04776 6.06748Z" fill="white"/>
<path d="M6.38178 5.51846L6.32323 5.87963C6.31951 5.90179 6.31134 5.92296 6.29921 5.94187C6.28709 5.96078 6.27126 5.97705 6.25269 5.98968C6.23983 5.99875 6.22583 6.0061 6.21107 6.01155C5.79981 5.94101 3.22714 6.02213 2.85256 6.03483V6.03059L2.82223 6.03624H2.81165L2.78343 6.04118C2.77381 6.04191 2.76414 6.04191 2.75451 6.04118C2.71846 6.04098 2.68339 6.02937 2.65434 6.00802C2.63592 5.99444 2.62048 5.97723 2.60895 5.95745C2.59743 5.93768 2.59007 5.91576 2.58733 5.89304L2.54218 5.52834C2.53707 5.485 2.5489 5.44137 2.57518 5.40654C2.60147 5.37171 2.64019 5.34837 2.68326 5.3414L2.82858 5.31671C3.16083 5.30542 5.43864 5.24617 6.06364 5.29343C6.12336 5.3019 6.18262 5.31107 6.2414 5.32094C6.27126 5.32605 6.29925 5.33895 6.32253 5.35833C6.34571 5.37738 6.36341 5.40224 6.37382 5.43038C6.38423 5.45851 6.38698 5.48891 6.38178 5.51846Z" fill="white"/>
<path d="M5.94919 4.5198L5.80811 3.35938H5.83421C5.88609 3.35899 5.93631 3.37766 5.97533 3.41187C6.01434 3.44607 6.03943 3.49342 6.04583 3.54491L6.1072 4.0387C6.1185 4.1256 6.11017 4.21393 6.08282 4.29719C6.05548 4.38045 6.00981 4.45652 5.94919 4.5198Z" fill="white"/>
<path d="M5.87939 4.58957C5.66339 4.77454 5.41615 4.91953 5.14928 5.01776C4.86711 5.12075 3.12966 5.28158 2.97658 5.35636L2.93284 5.00365C2.92663 4.942 2.94465 4.88036 2.9831 4.83177C3.02155 4.78318 3.0774 4.75147 3.13883 4.74335C4.0445 4.59684 4.963 4.5453 5.87939 4.58957Z" fill="white"/>
<path d="M3.65255 12.5798H0.634767L0.63124 12.5762C0.632174 12.0904 0.82582 11.6248 1.16968 11.2816C1.51354 10.9384 1.97951 10.7457 2.46533 10.7457H3.66807C6.11518 10.7457 8.15878 8.80223 8.19405 6.35584C8.20218 5.76536 8.09297 5.17915 7.87276 4.63122C7.65256 4.08328 7.32574 3.58453 6.91127 3.16389C6.4968 2.74325 6.00292 2.4091 5.4583 2.18082C4.91368 1.95255 4.32914 1.83469 3.73862 1.83409H2.45898C1.97377 1.83316 1.5087 1.64 1.16561 1.2969C0.822512 0.953807 0.62935 0.488737 0.628418 0.0035271L0.634767 0H3.73862C4.56929 0.000995786 5.39155 0.166326 6.15805 0.486467C6.92455 0.806608 7.62014 1.27523 8.20475 1.86535C8.78936 2.45547 9.25144 3.15543 9.56438 3.92489C9.87732 4.69436 10.0349 5.51814 10.0281 6.34878C9.99428 9.8131 7.11758 12.5798 3.65255 12.5798Z" fill="white"/>
<path d="M3.29572 9.67434H1.01369C0.880603 9.67444 0.748803 9.6483 0.62582 9.59744C0.502838 9.54657 0.391084 9.47197 0.296945 9.3779C0.202806 9.28382 0.128128 9.17212 0.0771762 9.04917C0.0262249 8.92623 -3.22696e-08 8.79445 0 8.66136L0 8.60352H3.08904L3.27879 9.61015C3.28213 9.63209 3.2878 9.65361 3.29572 9.67434Z" fill="white"/>
<path d="M3.05518 8.42809H0.506492C0.372219 8.4279 0.243499 8.37448 0.148554 8.27953C0.0536089 8.18459 0.00018662 8.05587 0 7.9216L0 7.86587C0.00018662 7.73159 0.0536089 7.60287 0.148554 7.50793C0.243499 7.41298 0.372219 7.35956 0.506492 7.35938H2.85343L3.05518 8.42809Z" fill="white"/>
<path d="M2.82168 7.17418H0V7.11845C-3.22696e-08 6.98537 0.0262249 6.85358 0.0771762 6.73064C0.128128 6.60769 0.202806 6.49599 0.296945 6.40192C0.391084 6.30784 0.502838 6.23324 0.62582 6.18238C0.748803 6.13151 0.880603 6.10538 1.01369 6.10547H2.41042C2.43697 6.14684 2.47093 6.18295 2.51059 6.21199C2.55108 6.24137 2.59646 6.26334 2.64462 6.27689V6.28958H2.65097L2.82168 7.17418Z" fill="white"/>
</svg>

<svg width="11" height="13" fill="none" xmlns="http://www.w3.org/2000/svg"><path d="m6.048 6.067-.064.344a6.63 6.63 0 0 1-.606 1.798C4.485 9.952 3.61 9.665 3.57 9.652a.131.131 0 0 1-.047-.08L2.87 6.107c.365-.012 2.502-.079 3.179-.039zM6.382 5.518l-.059.362a.166.166 0 0 1-.07.11.181.181 0 0 1-.042.022c-.411-.071-2.984.01-3.358.023V6.03l-.03.005h-.011l-.029.005h-.028a.17.17 0 0 1-.146-.084.168.168 0 0 1-.022-.064l-.045-.365a.17.17 0 0 1 .141-.187l.146-.024c.332-.012 2.61-.07 3.235-.024l.177.028a.172.172 0 0 1 .14.197zM5.95 4.52l-.142-1.16h.026a.212.212 0 0 1 .212.185l.061.494a.586.586 0 0 1-.158.48z" fill="#fff"/><path d="M5.88 4.59c-.217.185-.464.33-.73.428-.283.103-2.02.264-2.173.338l-.044-.352a.238.238 0 0 1 .206-.26 13.18 13.18 0 0 1 2.74-.154z" fill="#fff"/><path d="M3.653 12.58H.635l-.004-.004a1.834 1.834 0 0 1 1.834-1.83h1.203c2.447 0 4.49-1.944 4.526-4.39A4.46 4.46 0 0 0 3.74 1.834h-1.28A1.834 1.834 0 0 1 .629.004L.634 0h3.104a6.297 6.297 0 0 1 6.29 6.349c-.035 3.464-2.911 6.23-6.376 6.23z" fill="#fff"/><path d="M3.296 9.674H1.014A1.013 1.013 0 0 1 0 8.661v-.057h3.089l.19 1.006a.311.311 0 0 0 .017.064zM3.055 8.428H.506A.507.507 0 0 1 0 7.922v-.056a.507.507 0 0 1 .506-.507h2.347l.202 1.07zM2.822 7.174H0v-.056a1.013 1.013 0 0 1 1.014-1.013H2.41a.4.4 0 0 0 .235.172v.013h.006l.17.884z" fill="#fff"/></svg>
